icons/global/user-settings/voice-&-video.svg

<svg xmlns="http://www.w3.org/2000/svg" width="24" height="24" fill="none">
  <path fill="#000" d="M14.99 11c0 1.66-1.33 3-2.99 3-1.66 0-3-1.34-3-3V5c0-1.66 1.34-3 3-3s3 1.34 3 3l-.01 6ZM12 16.1c2.76 0 5.3-2.1 5.3-5.1H19c0 3.42-2.72 6.24-6 6.72V22h-2v-4.28c-3.28-.49-6-3.31-6-6.72h1.7c0 3 2.54 5.1 5.3 5.1Z"/>
</svg>

<svg width="24" height="24" viewBox="0 0 24 24" fill="none" xmlns="http://www.w3.org/2000/svg">
<path d="M14.99 11C14.99 12.66 13.66 14 12 14C10.34 14 9 12.66 9 11V5C9 3.34 10.34 2 12 2C13.66 2 15 3.34 15 5L14.99 11ZM12 16.1C14.76 16.1 17.3 14 17.3 11H19C19 14.42 16.28 17.24 13 17.72V22H11V17.72C7.72 17.23 5 14.41 5 11H6.7C6.7 14 9.24 16.1 12 16.1Z" fill="black"/>
</svg>
